rospo-icon-theme-classic-common/64x64/apps/openage.svg

<svg height="64" width="64" xmlns="http://www.w3.org/2000/svg"><path d="m32 5c-15.512 0-28 12.488-28 28s12.488 28 28 28 28-12.488 28-28-12.488-28-28-28z" opacity=".2"/><path d="m32 4c-15.512 0-28 12.488-28 28s12.488 28 28 28 28-12.488 28-28-12.488-28-28-28z" fill="#4f4f4f"/><path d="m19 15v16.615384c0 3.686678 1.379876 7.238324 3.714286 9.384616l-3.714286 6c3.78118 2.913784 8.3317 3.999862 13 4s9.21882-1.086216 13-4l-3.714286-6c2.33441-2.146152 3.714286-5.697938 3.714286-9.384616v-16.615384h-5v6.647262c-1.045343-.674058-3.076626-1.947204-5-2.309539v-4.337723h-6v4.337723c-.92697.19725-3.95467 1.635507-5 2.309539v-6.647262zm13 10c3.50441 0 5.77141 1.615386 8 3v5c0 3.511662-5.4 6.615384-8 8-2.6-1.384616-8-4.488338-8-8v-5c2.22859-1.384614 4.49559-3 8-3z" opacity=".2"/><path d="m19 14v16.615384c0 3.686678 1.379876 7.238324 3.714286 9.384616l-3.714286 6c3.78118 2.913784 8.3317 3.999862 13 4s9.21882-1.086216 13-4l-3.714286-6c2.33441-2.146152 3.714286-5.697938 3.714286-9.384616v-16.615384h-5v6.647262c-1.045343-.674058-3.076626-1.947204-5-2.309539v-4.337723h-6v4.337723c-.92697.19725-3.95467 1.635507-5 2.309539v-6.647262zm13 10c3.50441 0 5.77141 1.615386 8 3v5c0 3.511662-5.4 6.615384-8 8-2.6-1.384616-8-4.488338-8-8v-5c2.22859-1.384614 4.49559-3 8-3z" fill="#fff"/><path d="m32 4c-15.512 0-28 12.488-28 28 0 .11345.0112805.224113.0175781.335938.3515432-15.201757 12.6931499-27.335938 27.9824219-27.335938s27.630879 12.134181 27.982422 27.335938c.006298-.111825.017578-.222488.017578-.335938 0-15.512-12.488-28-28-28z" fill="#fff" opacity=".1"/></svg>

<svg xmlns="http://www.w3.org/2000/svg" width="64" height="64" version="1">
 <path style="opacity:0.2" d="M 32,5 C 16.488,5 4,17.488 4,33 4,48.512 16.488,61 32,61 47.512,61 60,48.512 60,33 60,17.488 47.512,5 32,5 Z"/>
 <path style="fill:#4f4f4f" d="M 32,4 C 16.488,4 4,16.488 4,32 4,47.512 16.488,60 32,60 47.512,60 60,47.512 60,32 60,16.488 47.512,4 32,4 Z"/>
 <path style="opacity:0.2" d="m 19,15 0,16.615384 C 19,35.302062 20.379876,38.853708 22.714286,41 L 19,47 c 3.78118,2.913784 8.3317,3.999862 13,4 4.6683,1.38e-4 9.21882,-1.086216 13,-4 L 41.285714,41 C 43.620124,38.853848 45,35.302062 45,31.615384 L 45,15 l -5,0 0,6.647262 C 38.954657,20.973204 36.923374,19.700058 35,19.337723 L 35,15 l -6,0 0,4.337723 c -0.92697,0.19725 -3.95467,1.635507 -5,2.309539 L 24,15 Z m 13,10 c 3.50441,0 5.77141,1.615386 8,3 l 0,5 c 0,3.511662 -5.4,6.615384 -8,8 -2.6,-1.384616 -8,-4.488338 -8,-8 l 0,-5 c 2.22859,-1.384614 4.49559,-3 8,-3 z"/>
 <path style="fill:#ffffff" d="m 19,14 0,16.615384 C 19,34.302062 20.379876,37.853708 22.714286,40 L 19,46 c 3.78118,2.913784 8.3317,3.999862 13,4 4.6683,1.38e-4 9.21882,-1.086216 13,-4 L 41.285714,40 C 43.620124,37.853848 45,34.302062 45,30.615384 L 45,14 l -5,0 0,6.647262 C 38.954657,19.973204 36.923374,18.700058 35,18.337723 L 35,14 l -6,0 0,4.337723 c -0.92697,0.19725 -3.95467,1.635507 -5,2.309539 L 24,14 Z m 13,10 c 3.50441,0 5.77141,1.615386 8,3 l 0,5 c 0,3.511662 -5.4,6.615384 -8,8 -2.6,-1.384616 -8,-4.488338 -8,-8 l 0,-5 c 2.22859,-1.384614 4.49559,-3 8,-3 z"/>
 <path style="opacity:0.1;fill:#ffffff" d="M 32 4 C 16.488 4 4 16.488 4 32 C 4 32.11345 4.0112805 32.224113 4.0175781 32.335938 C 4.3691213 17.134181 16.710728 5 32 5 C 47.289272 5 59.630879 17.134181 59.982422 32.335938 C 59.98872 32.224113 60 32.11345 60 32 C 60 16.488 47.512 4 32 4 z"/>
</svg>
